X:168
T:Swing 39
C:D. Reinhardt & S. Grappelli
N:Introduction form "Back to Back" by Jethro Burns and Tiny Moore Django's break arranged for mandolin by Mike Stangeland
L:1/8
Q:1/4=210
M:4/4
K:Bb
z6 (3de=e |: "Bb"f3f/f/ f/f/f/f/ f/f/f/f/ | zf =ef gf dB | "C9"G3G/G/ G/G/G/G/ G/G/G/G/ | 
z6 (3de=e | "Bb"f3f/f/ f/f/f/f/ f/f/f/f/ | zf =ef gf dB | "C9"G3G/G/ G/G/G/G/ G/G/G/G/ | 
z6 (3de=e | "Bb"f3f/f/ f/f/f/f/ f/f/f/f/ | zf =ef gf ef | "C7"=e3e/e/ e/e/e/e/ e/e/e/e/ | 
z=e _e=e fe _e=e | "Eb7"e3e/e/ e/e/e/e/ e/e/e/e/ |1 z"Eb7"e de fe de | "D7"d8 | 
z6 (3de=e :|2 z"D7"e d(3e2 (3d2B2 A2 | "Gma7"G8 | z4 z_d =d2 |] "Dma9"a3a z4 | 
z4 zd e2 | "Eb9"b3b z4 | z4 z_d =d2 | "Dma9"a3a z4 | z4 zd e"Eb9"b | z_d =d"Dma9"a zd e"Eb9"b | 
z_d =d"Dma9"a z2 (3de=e | "Bb"f3f/f/ f/f/f/f/ f/f/f/f/ | zf =ef gf dB | "C9"G3G/G/ G/G/G/G/ G/G/G/G/ | 
z6 (3de=e | "Bb"f3f/f/ f/f/f/f/ f/f/f/f/ | zf =ef gf dB | "C9"G3G/G/ G/G/G/G/ G/G/G/G/ | 
z6 (3de=e | "Bb"f3f/f/ f/f/f/f/ f/f/f/f/ | zf =ef gf df | "C7"=e3e/e/ e/e/e/e/ e/e/e/e/ | 
z=e _e=e fe _e=e | "Eb7"e3e/e/ e/e/e/e/ e/e/e/e/ | ze d(3e2 (3d2B2 A2 | "Gma7"G/G/G/G/ G/G/G/G/ G/G/G/G/ G/G/G/G/ | 
G2 =EG Bc _d=e | "Django's break""Bb"gb _d'=d' za c'2 | zb7/1 | (3FGF =EG Bd _G2 | 
G4 e4 | z3d ef ed | "F7"cB AG FE CB, | A,4 zA, B,_D | "Bb"=EG B_d =eg ze | f=e _ed f=e _ed | 
f=e _ed f=e _ed | "D7"_gf =e_e dc A_G | D_D CB (3ABA fe | (3"Eb7"f/=e/_e/_d BG ED _D2 | 
=B2 _D_B4=E | "D7"_G=e dc AG D_D | CB z6 | "G9"AB df a2 a2 | gf d2 A4 | "C9"_A3G z4 | 
z8 | "Bb"B,E zD GF cB | ED GF cB dd | "D7"z_G z2 z4 | z8 | "Bb"fg ac' (3b/c'/b/a gf | 
ed cB AG _GA | "D7"cd e_g ac' e'_d' | d'3d z4 | "Eb7"zc _dc' bg =ed | "D7"BA G_G Ac de | 
"Gma7"_ga =gd ec A_G | G8 | "D7"a4 d'3a | z7/1G | "Eb7"Bf e_d BG E_D | c2 _DB z3G | 
"D7"A=e dc A_G =G_G | FB A2 A2 z_D | "Eb7"zB ze (3efe c2 | "D7"_De (3ded z4 | 
"Gm"de fe dc BA | GF ED CG, A,2 | "D7"A,=E E4 G,2 | c=E2c G2 cF | "Bb"z4 zF GF | 
cB ed gf c'a | "D7"z2 z4 c'_g | z8 | "Bb"z3f ga bc' | (3b/c'/b/a gf ed cB | "D7"AG _GA ce _ga | 
c'e' (3d'e'd' d3e | "Eb7"z3D EG _de | (3"D7"ded _d=d e'3=b | "Gma7"gd =B2 ec A_G | 
G/(3=Bd g2 G4 | (3"Tiny Moore solo ""Bb6"bag =eg fd BG | FG BG _d=d BG | "C7"=EC B,G, DC3 | 
(3=EFG Bd2c zg | (3"Bb6"g_gf =e=g fd BG | FG BG _d=d GF | "C7"=EG BG d2 _dc | 
z6 (3B,CD | "Bb6"FD GD FG AB | cB AB d4 | (3"D7"d=e_g ad eg ag | =b_g ad'4z | 
(3"Eb7"efg bf c'g bg | ef gb c'g b=e' | "D7"d=e _ga d'2 _d'c' | z8 | "Bb6"bz/4a/4g/4f/4 =eg fd BG | 
FG BG dB GF | (3"C7"=EFG (3Bcd gb zg | z4 zD zg | "Bb6"fd BG AF Gc | BG FD CB, G,B, | 
"C7"(3CD=E (3GA=B (3dcB (3c=eg | (3c'bc' d'e' z4 | f2 dB FB d2 | fd ag z4 | {f}"D7"_gd _dc AF A,B, | 
DF Ac3 (3g_a=a | "Eb7"bg ec BG EC | "D7"B,C E2 DC B,A, | "Gma7"(3G,B,D GD BG dB | 
gd =BG D=B,2f | "D7"=bb a2 gg _g2 | =ee d2 c=B AG | "Eb7"ze eB2G GF | EF GB ee BG | 
"D7"D_G Ac ec g_g | =ed =BG dc EG | "Eb7"bg ea "D7"_gd b=g | "Eb7"ea _gd "D7"z2 (3Bc_d | 
"Jethro's break""Bb6"d2 (3B,CD GF FB | B2 G2 d2 BB, | "C7"C=E GB d_g z[agBE] | 
[a2_g2B2=E2] [a4g4B4E4] z2 | "Bb6"f2 d_A GB d2 | g2 dB GB d_g | (3"C7"a2a2 a2 (3f2f2 f2 | 
(3d2d2 d2 BA GD | "Bb6"Fd zF z2 BA | GF DB, DB, A,B, | (3"D7"D=E_G Ac _ga e'a | 
=e'A d'_g'4z | "Eb7"Be ge bg eA | d_g ag d'b z2 | "Gma7"=bg =e=B d2 ed | g=e g=b z2 FG | 
"Bb6"Bc e_d =dB GE | DF Ac BA FD | "C7"FE =EC B,B, G,B, | zG, B,6 | "Bb6"FG Bc e_d =dA | 
Bd fa bf dc | "C7"B_G =GB dB GD | F2 FG =EF GA | "Bb6"B2 Bc d2 de | f2 fg bf d=B | 
"D7"a_g z6 | ec AG FD z2 | "Eb7"E3B, EF GB | AG3 cB G=E | "D7"cB AG FD ed | zg3 a3f | 
"Bb6"fg2b3 f_a | gf2d gf dc | "C7"BA G4 dc | BA GF =EG Bc | "Bb6"d2 e_d =dB GE | 
DE F2 FE DC | "C7"B,2 B,C G,F GB | z2 F2 =E2 E2 | "Bb6"z2 df a4 | fa bf df ag | 
"D7"_g=e d_d cB AG | FA ce dc GF | "Eb7"EG Bd eB GE | "D7"e2 d2 cA _GD | "Gma7"GA (3Bc_d =dg gA | 
(3Bc_d =da a2 A/B/c/d/ | (3"D7"_g=g_a =a_g d_d c=B | AG _G=E D4 | (3"Eb7"g_a=a bg ec c'g | 
bg ec4z | "D7"zA zF DF AF | dA z2 f2 d2 | "Eb7"ge cG "D7"BG cG | "Eb7"Ad _d=d "D7"=ed _gd | 
"Tiny""Bb6"[b4_d4] [b4d4] | [b3_d3][bd] [b4d4] | "C7"z2 Bd fa b_g | ag f_d =df e_d | 
"Bb6"d2 d2 de dc | BF GA Bc dB | "C7"GD (3FGF =EG zD | F=E FE z4 | "Bb6"z3G Bc e_d | 
dB GD FG BG | "D7"d4 cB AG | FA ce dc BA | "Eb7"EF FB cB G_D | _GA ce dc (3cdc | 
"Gma7"=BG =E_E D=E _G=G | A_G =GA =BG (3de=e | 


